X: 21545
T: Kildonan Drive
R: polka
M: 2/4
K: Dmajor
|:f2 ed|B3 B|AB de|fe eg|
f2 ed|B3B|AB de|dA de:|
|:fa af|gf d3/2B/|AB de|fe eg|
[1fa af|gf d3/2B/|AB de|dA de:|
[2 f2ed|B3B|AB de|dA de||

